X: 110
T: A Bottle Of Vodka, Twenty Marlboro Reds And £50 Cashback, Please
R: jig
M: 6/8
K: Dmajor
a2d dcd|Bcd cBA|BGB cGd-|dcA Bag|
a2d dcd|Bcd cBA|Bcd c3|cde Aag:|
BGB cGd-|ded cBA|BGB cGc|ded fed|BGB cGd-|
ded cBA|BGB cGc|1 dcd fed:|2 dcd efg||
|:agf g2a-|a6|cda agg|gff fee|
fBd g2f-|f6|fee egg|gff f2z:|

